X: 1413
T: Molly What Ails You?   #2
R: reel
%S: s:2 b:11(5+6)
B: O'Neill's 1850 #1413
O: F.O'Neill
Z: Bob Safranek, rjs@gsp.org
M: C|
L: 1/8
K: D
"^A"\
|: ABAF ABde | ((3fga) ef (dB)Bd | ABAF ABde | [1 ((3fga) (ef) dcdB :|2 baef Td2 d2 |]
"^B"\
|: f>a (3.a.a.a g>b (3.b.b.b | afef dB [1 B2 | f>a (3.a.a.a g>bbc' | d'c'ba b2 b2 :|[2 Bd | ABAF ABde | baef Td2 d2 |]
